X: 1
T: Pappani talo, kivinen talo
M: 3/4
L: 1/8
K: Dm
|: "Dm"A2 DD DF | "Dm"A2 DD DF | "Gm"B2 GG GA | B2 "A7"A4 :| \
|: "Gm"B2 GG GB | "Dm"A2 DD DE | "Gm"F2 EF "A7"GF | E2 "Dm"D4 :|
